X:1
T:Cleethorpes, 76.76 D refrain
T:Cleethorpes, 76.76 D refrain
T:Timothy Richard Matthews (1826–1910)
T:Public Domain Courtesy of the Cyber Hymnal™
C:Timothy Richard Matthews (1826–1910)
Z:Public Domain
Z:Courtesy of the Cyber Hymnal™
%%score ( 1 2 ) ( 3 4 )
L:1/8
Q:1/4=110
M:4/4
K:G
V:1 treble 
V:2 treble 
V:3 bass 
V:4 bass 
V:1
 [B,D]2 | [DG]2 [DG]2 [DA]2 [DA]2 | [DB]4 [DG]2 [GB]2 | c2 [GB]2 [EA]2 [EG]2 x | [DF]6 D2 | %5
 [DG]2 [DG]2 [DA]2 [DA]2 | [DB]4 [DG]2 B2 | [FA]2 [EG]2 [DF]2 [^CE]2 x | D6 [DA]2 | %9
 [DA]2 [DF]2 [^CE]2 D2 | [DB]4 [DG]2 [EB]2 | [Ec]2 [DB]2 [CA]2 [B,^G]2 | [CA]6 [DA]2 | %13
 [Dd]2 [DB]2 [DA]2 [B,G]2 | c4 [^DB]2 [FB]2 | [EB]2 [EA]2 [DG]2 [DF]2 | [DG]6 z2 | %17
 [DG]2 [DG]2 [DA]2 [DA]2 | [DB]4 [DG]2 [GB]2 | c2 [GB]2 [EA]2 [EG]2 x | [DF]6 D2 | %21
 [Dd]2 [Dd]2 [B,G]2 [B,G]2 | [Ec]3 [Ec] !fermata![DB]2 [Dd]2 | d2 c2 B2 z x3 | [B,G]6 |] %25
V:2
 x2 | x8 | x8 | (EF) x7 | x6 D2 | x8 | x6 (DE) | x9 | D6 x2 | x6 D2 | x8 | x8 | x8 | x8 | %14
 C2 E2 x4 | x8 | x8 | x8 | x8 | (EF) x7 | x6 D2 | x8 | x8 | E4 D3 (A2 C) | x6 |] %25
V:3
 [G,,G,]2 | [B,,G,]2 [B,,G,]2 [D,F,]2 [D,F,]2 | G,4 [G,B,]2 [G,,D]2 | [A,,C]2 [B,,D]2 C3 z B, | %4
 [D,A,]6 [D,F,]2 | [B,,G,]2 [B,,G,]2 [D,F,]2 [D,F,]2 | [G,,G,]4 [G,B,]2 (B,^C) | %7
 [F,D]2 [G,B,]2 A,3 z G, | [D,F,]6 [D,F,]2 | [F,A,]2 [D,A,]2 [E,G,]2 [F,A,]2 | %10
 [G,B,]4 [G,B,]2 [E,G,]2 | [A,,A,]2 [D,=F,]2 E,2 E,2 | [A,,E,]6 [C,F,]2 | %13
 [B,,G,]2 [B,,G,]2 [D,F,]2 [E,G,]2 | A,2 G,2 [B,,F,]2 [^D,A,]2 | [E,G,]2 [C,C]2 [D,B,]2 [D,A,]2 | %16
 [G,,B,]6 z2 | [B,,G,]2 [B,,G,]2 [D,F,]2 [D,F,]2 | G,4 [G,B,]2 [G,,D]2 | [A,,C]2 [B,,D]2 C3 z B, | %20
 [D,A,]6 [C,F,]2 | [B,,G,]2 [B,,G,]2 [E,G,]2 [E,G,]2 | [C,G,]3 [C,G,] !fermata![G,,G,]2 [B,,G,]2 | %23
 G,6 [D,F,]2 x2 | [G,,G,]6 |] %25
V:4
 x2 | x8 | G,4 x4 | x4 C,2 C,2 x | x8 | x8 | x6 G,2 | x4 A,2 A,,2 x | x8 | x8 | x8 | x4 E,2 E,2 | %12
 x8 | x8 | A,,4 x4 | x8 | x8 | x8 | G,4 x4 | x4 C,2 C,2 x | x8 | x8 | x8 | C,4 D,2 x4 | x6 |] %25

